X:1
T:[ID 2-125b]
T:[ID 2-125b]
T:Bezeichnung standardisiert: Polonaise Polonoise
T:Urheber unbekannt Datum in der hier transkribierten schriftlichen Quelle: 1767
C:Urheber unbekannt
C:Datum in der hier transkribierten schriftlichen Quelle: 1767
L:1/8
M:3/4
K:D
V:1 treble 
V:1
 d2 D/F/A/d/ D/F/A/d/ | f2 A/d/f/a/ A/d/f/a/ | d'2 a2 g2 | f/a/g/f/ f2 e2 |"^O)" A>G FF dF | %5
 G>F EE ef/e/ |"^O)" A>G FF dF | G>F EE ef/e/ | A2 B2"^[sic]" d2 | A/G/F/E/ D4 :: a2 f2 d2 | %11
 d'/a/f/a/ a/g/f/e/ A2 | f/a/g/f/ f2 e2 | f2 e2 c2 |"^O)" A>G FF dF | G>F EE ef/e/ | %16
"^O)" A>G FF dF | G>F EE ef/e/ | A2 B2"^[sic]" d2 | A/G/F/E/ D4 :| %20

